X:170
T:Skrattpolskan
R:sl\"angpolska
H:efter Lars Erik Larsson, Floda
A:S\"ormland
B:SvL \"Ogl 15
Z:id:hn-sp-170
M:3/4
L:1/16
K:Dm
A2=B^c d2ed c2A2 | d3f e2fg a4 | a2ba g2f2 e2d2 | d2^cd e2c2 A4 |
A2=B^c d2ed c2A2 | d3f e2fg a4 | a2ba g2f2 e2d2 | ^c2e2 d8 :|
|: f2A2 f2A2 f2A2 | f3e e8 | f3d d2d2 d2d2 | d3^c A8 |
w:****** *** ha ha ha ha ha ha
f2gf e4 d4 | A2^c2 e2g2 f2e2 | d3^c d2b2 a2^g2 |1 a2^c2 d8 :|
[2 a2^c2 d6 f2 |: afcA FAcf afc2 | b2ge c2eg bgeg |
afcA FAcf afc2 | b2ge c2eg bgeg | f2e2 d2f2 e2d2 |
A2^c2 e2g2 f2e2 | d2b2 a2g2 f2ed |1 ^cdec d6 f2 :|2 ^cdec d8 ||

